X:1
T:Title
%%score { ( 1 4 ) | ( 2 3 ) }
L:1/8
Q:1/4=144
M:6/4
K:G
V:1 treble nm="Grand Piano"
V:4 treble 
V:2 bass 
V:3 bass 
V:1
 [DGB]2 [EGc]2 [DGB]2 [DEB]2 [CEA]2 [_B,EG]2 | [B,DG]6 [G,B,D]4 [B,DG]2 | [DFA]6 [DFA]6 | [DGB]12 | %4
w: W.~H.~Doane * * * * *||||
 [DB]2 [Ec]2 [DB]2 [DEB]2 [CEA]2 [_B,EG]2 | [B,DG]6 [G,B,D]4 [B,DG]2 | [CFA]6 [DFB]6 | [B,G]12 | %8
w: ||||
 [FA]2 [GB]2 [FA]2 [FA]2 [GB]2 [Ac]2 | [EGc]6 [DGB]4 [DGB]2 | [^CGB]6 .[CGA]6 | [FA]12 | %12
w: ||||
 [FA]2 [GB]2 [FA]2 [FA]2 [GB]2 [Ac]2 |[M:5/4] e6 d4 |[M:1/4] B2 |[M:6/4] [CGB]6 .[CGA]6 | [DFA]12 | %17
w: |||||
 [DB]4 B2 [CA]2 B2 A2 | [B,G]6 [DB]6 | [CA]6 [CA]2 ^G2 A2 | c6 B6 | B4 B2 B2 c2 d2 | [=Fd]6 z6 | %23
w: ||||||
 [B,DG]6 [DGB]4 [DA]2 | [B,DG]12 | .[GB]12 | d6 B6 | .[FA]12 | [GB]6 [Gd]6 | %29
w: ||||||
 [Ge]2 [Ge]2 [Ge]2 [Ge]2 [G^d]2 [Ge]2 | [Gd]6 [DGB]4 [CEA]2 | [B,DG]6 [DGB]4 [CDA]2 | [B,DG]12 |] %33
w: ||||
V:2
 G,2 G,2 G,2 C,2 C,2 ^C,2 | D,6 D,4 D,2 | D,6 D,6 | G,12 | G,2 G,2 G,2 C,2 C,2 ^C,2 | D,6 D,4 D,2 | %6
 D,6 D,6 | G,,12 | [D,D]2 [D,D]2 [D,D]2 [D,D]2 [D,D]2 [D,D]2 | G,6 G,4 G,2 | E,6 z4[K:treble] B2 | %11
 [D,D]12 | [D,D]2 [D,D]2 [D,D]2 [D,D]2 [D,D]2 [F,D]2 |[M:5/4][K:treble] [G,CG]6 [G,B,G]4 | %14
[M:1/4] [G,DG]2 |[M:6/4][K:bass] E,6 z4[K:treble] B2 | D,12 | z4 D2 z2 D2 C2 | G,,6 G,,6 | %19
 D,6 z2 B,2[K:treble] C2 | [G,E]6 [G,D]6 | [G,G]6 .[G,G]6 | .[C,G,]6 [C,A,]4 C,2 | D,6 z4 C2 | %24
 G,,12 | G,2 G,2 G,2 G,2[K:treble] [G,^CG]2 [G,DG]2 | [G,B,G]6 [G,DG]6 | %27
 [D,D]2 D,2 D,2 D,2 [D,D]2 [D,D]2 | [G,D]6 [G,B,]6 | [C,C]2 [C,C]2 [C,C]2 [C,C]2 [C,C]2 [E,C]2 | %30
 [G,B,]6 G,4 C,2 | D,6 D,4 D,2 | G,,12 |] %33
V:3
 x12 | x12 | x12 | x12 | x12 | x12 | x12 | x12 | x12 | x12 | z6 A,,6[K:treble] | x12 | x12 | %13
[M:5/4][K:treble] x10 |[M:1/4] x2 |[M:6/4][K:bass] z6 A,,6[K:treble] | x12 | G,,6 D,6 | x12 | %19
 z6 D,6[K:treble] | x12 | D4 D2 D2 A,2 [G,B,=F]2 | x12 | z6 D,6 | x12 | x8[K:treble] x4 | x12 | %27
 x12 | x12 | x12 | x12 | x12 | x12 |] %33
V:4
 x12 | x12 | x12 | x12 | x12 | x12 | x12 | x12 | x12 | x12 | x12 | x12 | x12 |[M:5/4] x10 | %14
[M:1/4] x2 |[M:6/4] x12 | x12 | x12 | x12 | x12 | x12 | x12 | z4 ^G,2 [Ec]4 [CEA]2 | x12 | x12 | %25
 D2 D2 D2 D2 _B2 =B2 | x12 | z2 D2 D2 D2 [E^G]2 [FA]2 | x12 | x12 | x12 | x12 | x12 |] %33

